public/img/ico-astronaut.svg

<svg width="55" height="55" viewBox="0 0 55 55" fill="none" xmlns="http://www.w3.org/2000/svg">
<path d="M49.7664 7.56116H37.4963C37.0728 7.56116 36.7294 7.90453 36.7294 8.32804V11.2736C32.8538 12.9585 31.0778 17.4662 32.7626 21.3418C33.296 22.5687 34.1418 23.6344 35.2156 24.4325H23.6925C23.4867 24.4322 23.2894 24.5152 23.1457 24.6625C23.0744 24.6288 23.0008 24.5997 22.9256 24.5728V8.32804C22.9256 7.90453 22.5822 7.56116 22.1587 7.56116H10.6555V6.79428C10.6555 6.37077 10.3122 6.0274 9.88866 6.0274H5.28739C4.86388 6.0274 4.52051 6.37077 4.52051 6.79428V17.5306C4.52051 17.9541 4.86388 18.2975 5.28739 18.2975H9.12178V19.0643C9.12178 19.4878 9.46515 19.8312 9.88866 19.8312H21.3918V24.5736C20.1992 24.9891 19.5692 26.2928 19.9846 27.4854C20.2143 28.1447 20.7325 28.663 21.3918 28.8926V48.9726H22.9256V28.8926C23.0023 28.8658 23.0744 28.8367 23.1457 28.8029C23.2893 28.9505 23.4865 29.0338 23.6925 29.0338H33.6619V35.9357C33.6619 36.3592 34.0053 36.7025 34.4288 36.7025V44.3713H33.6619C33.2384 44.3713 32.895 44.7147 32.895 45.1382V48.2057C32.895 48.6292 33.2384 48.9726 33.6619 48.9726H45.932C46.3555 48.9726 46.6988 48.6292 46.6988 48.2057V45.1382C46.6988 44.7147 46.3555 44.3713 45.932 44.3713H45.1651V39.1719C46.0958 40.0269 47.5435 39.9654 48.3984 39.0347C49.0354 38.3413 49.1826 37.3285 48.7694 36.4824C48.9168 36.3387 48.9998 36.1415 48.9995 35.9357V25.9662H49.7664C50.1899 25.9662 50.5332 25.6229 50.5332 25.1994V8.32804C50.5332 7.90453 50.1899 7.56116 49.7664 7.56116ZM9.12178 16.7637H6.05427V7.56116H9.12178V16.7637ZM10.6555 18.2975V9.09492H21.3918V18.2975H10.6555ZM22.1587 27.5C21.7352 27.5 21.3918 27.1566 21.3918 26.7331C21.3918 26.3096 21.7352 25.9662 22.1587 25.9662C22.5822 25.9662 22.9256 26.3096 22.9256 26.7331C22.9256 27.1566 22.5822 27.5 22.1587 27.5ZM33.6619 27.5H24.4594V25.9662H33.6619V27.5ZM33.6619 18.2975C33.6619 14.9092 36.4087 12.1624 39.7969 12.1624C43.1852 12.1624 45.932 14.9092 45.932 18.2975C45.932 21.6857 43.1852 24.4325 39.7969 24.4325C36.4102 24.4286 33.6657 21.6842 33.6619 18.2975ZM35.1957 25.9662H44.3982V35.1688H35.1957V25.9662ZM43.6313 36.7025V44.3713H40.5638V36.7025H43.6313ZM39.0301 47.4388H34.4288V45.9051H39.0301V47.4388ZM39.0301 44.3713H35.9625V36.7025H39.0301V44.3713ZM45.1651 47.4388H40.5638V45.9051H45.1651V47.4388ZM46.6988 38.2363C46.2753 38.2363 45.932 37.8929 45.932 37.4694C45.932 37.0459 46.2753 36.7025 46.6988 36.7025C47.1223 36.7025 47.4657 37.0459 47.4657 37.4694C47.4657 37.8929 47.1223 38.2363 46.6988 38.2363ZM47.4657 35.1688H45.932V25.9662H47.4657V35.1688ZM48.9995 24.4325H44.3783C47.771 21.9028 48.4707 17.1019 45.9411 13.7091C44.1655 11.3277 41.1735 10.187 38.2632 10.782V9.09492H48.9995V24.4325Z" fill="white"/>
<path d="M39.7968 13.6962C37.2566 13.6987 35.198 15.7573 35.1956 18.2975C35.1956 18.721 35.5389 19.0643 35.9624 19.0643C36.3859 19.0643 36.7293 18.721 36.7293 18.2975C36.7293 16.6033 38.1027 15.23 39.7968 15.23C40.2203 15.23 40.5637 14.8866 40.5637 14.4631C40.5637 14.0396 40.2203 13.6962 39.7968 13.6962Z" fill="white"/>
<path d="M38.2632 27.5H36.7295V29.0338H38.2632V27.5Z" fill="white"/>
<path d="M42.8643 27.5H41.3306V29.0338H42.8643V27.5Z" fill="white"/>
<path d="M36.7295 29.8006V34.4019H42.8645V29.8006H36.7295ZM41.3308 32.8681H38.2632V31.3344H41.3308V32.8681Z" fill="white"/>
<path d="M11.4224 30.5675C10.1518 30.5675 9.12178 29.5375 9.12178 28.2669C9.12178 27.8434 8.77841 27.5 8.3549 27.5C7.93139 27.5 7.58802 27.8434 7.58802 28.2669C7.58802 29.5375 6.55801 30.5675 5.28739 30.5675C4.86388 30.5675 4.52051 30.9109 4.52051 31.3344C4.52051 31.7579 4.86388 32.1013 5.28739 32.1013C6.55801 32.1013 7.58802 33.1313 7.58802 34.4019C7.58802 34.8254 7.93139 35.1688 8.3549 35.1688C8.77841 35.1688 9.12178 34.8254 9.12178 34.4019C9.12178 33.1313 10.1518 32.1013 11.4224 32.1013C11.8459 32.1013 12.1893 31.7579 12.1893 31.3344C12.1893 30.9109 11.8459 30.5675 11.4224 30.5675ZM8.3549 32.1013C8.13672 31.8107 7.87857 31.5526 7.58802 31.3344C7.87857 31.1162 8.13672 30.8581 8.3549 30.5675C8.57308 30.8581 8.83123 31.1162 9.12178 31.3344C8.83123 31.5526 8.57308 31.8107 8.3549 32.1013Z" fill="white"/>
<path d="M16.7906 37.4694H15.2568V39.0032H16.7906V37.4694Z" fill="white"/>
<path d="M16.7906 34.4019H15.2568V35.9357H16.7906V34.4019Z" fill="white"/>
<path d="M15.2569 35.9357H13.7231V37.4694H15.2569V35.9357Z" fill="white"/>
<path d="M18.3243 35.9357H16.7905V37.4694H18.3243V35.9357Z" fill="white"/>
<path d="M19.8581 44.3713H4.52051V45.9051H19.8581V44.3713Z" fill="white"/>
<path d="M31.3614 44.3713H24.4595V45.9051H31.3614V44.3713Z" fill="white"/>
<path d="M50.5333 44.3713H48.2327V45.9051H50.5333V44.3713Z" fill="white"/>
</svg>

<svg width="55" height="55" viewBox="0 0 55 55" fill="none" xmlns="http://www.w3.org/2000/svg"><path d="M49.766 7.561h-12.27a.767.767 0 0 0-.767.767v2.946a7.652 7.652 0 0 0-1.513 13.159H23.692a.763.763 0 0 0-.546.23 2.425 2.425 0 0 0-.22-.09V8.328a.767.767 0 0 0-.767-.767H10.656v-.767a.767.767 0 0 0-.767-.767H5.287a.767.767 0 0 0-.766.767v10.737c0 .423.343.767.766.767h3.835v.766c0 .424.343.767.767.767h11.503v4.743a2.287 2.287 0 0 0 0 4.319v20.08h1.534v-20.08c.076-.027.148-.056.22-.09.143.148.34.23.546.23h9.97v6.903c0 .423.343.767.767.767v7.668h-.767a.767.767 0 0 0-.767.767v3.068c0 .423.343.767.767.767h12.27a.767.767 0 0 0 .767-.767v-3.068a.767.767 0 0 0-.767-.767h-.767v-5.2a2.288 2.288 0 0 0 3.604-2.689.762.762 0 0 0 .23-.546v-9.97h.767a.767.767 0 0 0 .767-.767V8.328a.767.767 0 0 0-.767-.767zM9.122 16.764H6.054V7.56h3.068v9.203zm1.534 1.534V9.095h10.736v9.202H10.656zM22.159 27.5a.767.767 0 1 1 0-1.534.767.767 0 0 1 0 1.534zm11.503 0h-9.203v-1.534h9.203V27.5zm0-9.203a6.135 6.135 0 1 1 6.135 6.136 6.142 6.142 0 0 1-6.135-6.136zm1.534 7.67h9.202v9.202h-9.202v-9.203zm8.435 10.736v7.668h-3.067v-7.669h3.067zm-4.6 10.736h-4.602v-1.534h4.601v1.534zm0-3.068h-3.069v-7.669h3.068v7.67zm6.134 3.068h-4.601v-1.534h4.601v1.534zm1.534-9.203a.767.767 0 1 1 0-1.533.767.767 0 0 1 0 1.533zm.767-3.067h-1.534v-9.203h1.534v9.203zm1.533-10.736h-4.62a7.663 7.663 0 0 0-6.116-13.651V9.095H49v15.338z" fill="#fff"/><path d="M39.797 13.696a4.606 4.606 0 0 0-4.601 4.601.767.767 0 1 0 1.533 0 3.067 3.067 0 0 1 3.068-3.067.767.767 0 0 0 0-1.534zM38.263 27.5H36.73v1.534h1.533V27.5zm4.601 0h-1.533v1.534h1.533V27.5zm-6.134 2.3v4.602h6.135V29.8h-6.136zm4.6 3.068h-3.067v-1.534h3.068v1.534zm-29.908-2.301a2.3 2.3 0 0 1-2.3-2.3.767.767 0 0 0-1.534 0 2.3 2.3 0 0 1-2.3 2.3.767.767 0 0 0 0 1.534 2.3 2.3 0 0 1 2.3 2.3.767.767 0 0 0 1.534 0 2.3 2.3 0 0 1 2.3-2.3.767.767 0 0 0 0-1.534zm-3.067 1.534a3.85 3.85 0 0 0-.767-.767 3.85 3.85 0 0 0 .767-.767c.218.291.476.55.767.767a3.85 3.85 0 0 0-.767.767zm8.435 5.369h-1.533v1.533h1.534V37.47zm0-3.068h-1.533v1.534h1.534v-1.534zm-1.533 1.534h-1.534v1.533h1.534v-1.533zm3.067 0H16.79v1.533h1.534v-1.533zm1.534 8.435H4.521v1.534h15.337v-1.534zm11.503 0H24.46v1.534h6.902v-1.534zm19.172 0h-2.3v1.534h2.3v-1.534z" fill="#fff"/></svg>
